X:1
T: Lord Ramsay
C:Nathaniel Gow
R:Strathspey
Q: 128
K:Bb
M:4/4
L:1/16
|:e2|d3e f3g fd3 f4|d3f b3g fd3 c4|d3e f3g f3g db3|fd3 d3B c4 B2e2|
d3e f3g fd3 f4|d3f b3g fd3 c4|d3e f3g f3g db3|fd3 d3B c4 B2d2|
F3B D3B F3B D4|((3d2c2B2) f3d c3B G4|F3B D3B F3B D3e|((3d2c2B2) f3d c4 B3d|
F3B D3B F3B D4|((3d2c2B2) f3d c3B GB3|F3B D3F GB3 e3g|f3b gfed c4 B2:|
